src/Assets/Images/image9.svg

<svg width="111" height="107" viewBox="0 0 111 107" fill="none" xmlns="http://www.w3.org/2000/svg">
<g clip-path="url(#clip0_138_39)">
<path fill-rule="evenodd" clip-rule="evenodd" d="M80.7224 26.401C82.1867 26.7972 83.1997 28.0837 83.2061 29.5515C83.2442 29.6452 83.2447 29.7009 83.2447 29.7009C83.2447 29.7009 83.2285 42.274 67.8171 53.8481C62.0876 58.1503 57.0529 64.9135 55.144 71.507C54.7705 72.7814 53.6467 73.717 52.288 73.8895C50.9288 74.0603 49.594 73.4352 48.8934 72.2974C44.9554 65.6812 41.6157 54.8781 49.119 42.3093C56.4324 30.0607 69.7867 23.6553 80.7224 26.401ZM78.2312 30.5691C68.7024 29.4275 59.3571 35.0195 53.5298 44.7693C48.9014 52.5133 49.7943 61.307 52.0639 67.1233C53.9378 61.7346 57.59 55.2967 64.6916 49.9632C73.7404 43.1676 77.2589 34.3189 78.2312 30.5691Z" fill="#9A3B3B"/>
<path fill-rule="evenodd" clip-rule="evenodd" d="M60.5936 82.2069C59.0851 81.8059 58.0367 80.4827 58.0302 78.9707C57.9913 78.9178 57.9903 78.8874 57.9903 78.8874C57.9903 78.8874 58.0066 66.3143 73.4179 54.7402C79.2013 50.3971 84.2762 43.5469 86.1436 36.8948C86.4974 35.6534 87.5813 34.7354 88.9026 34.559C90.2222 34.3832 91.5238 34.9827 92.2118 36.085C96.2078 42.6781 99.6989 53.5771 92.116 66.279C84.8205 78.4978 71.5142 84.9016 60.5936 82.2069ZM63.0038 78.0192C72.5326 79.1608 81.878 73.5688 87.7052 63.819C92.3336 56.075 91.4407 47.2813 89.1712 41.465C87.2972 46.8537 83.645 53.2916 76.5434 58.6251C67.4947 65.4207 63.9762 74.2694 63.0038 78.0192Z" fill="#9A3B3B"/>
<path fill-rule="evenodd" clip-rule="evenodd" d="M41.3369 81.966C42.8398 81.9476 44.1476 80.968 44.5432 79.5679C44.6089 79.4711 44.6261 79.4094 44.6261 79.4094C44.6261 79.4094 47.9792 67.2591 36.1941 52.2285C31.8269 46.6582 28.783 38.9001 28.6862 32.0698C28.6603 30.7332 27.8156 29.54 26.5338 29.0327C25.2537 28.5254 23.7835 28.8024 22.7936 29.7369C17.2362 35.1554 11.176 44.7358 15.0422 58.6983C18.8272 72.3705 30.0268 81.9009 41.3369 81.966ZM49.1781 74.6617C50.517 75.4027 51.6175 75.7131 53.2016 75.4527C52.5331 76.9963 51.5431 78.1378 50.5964 78.9488C50.1645 79.2775 49.5686 79.3226 49.0901 79.0623C48.6098 78.8036 48.3386 78.2896 48.4042 77.7623C48.4474 76.9213 48.6564 75.9217 49.1781 74.6617ZM40.0153 77.3168C30.5053 76.0368 22.9785 68.3004 19.9623 57.4251C17.5662 48.7875 20.7845 40.5171 24.535 35.4658C24.9012 41.1396 26.7031 48.2719 32.1344 55.1989C39.0549 64.025 40.0827 73.4519 40.0153 77.3168ZM43.308 54.7867C42.8416 54.0875 42.3528 53.4117 41.8466 52.7659C30.0597 37.7336 33.4145 25.585 33.4145 25.585C33.4145 25.585 33.4335 25.5166 33.4646 25.4048C33.8602 24.0047 35.1576 23.0168 36.6605 22.9751C43.3616 23.0519 50.0281 26.401 55.1381 31.968C53.8995 33.1328 52.7749 34.271 51.7591 35.3974C48.1123 31.1687 43.3823 28.3969 38.0236 27.676C37.9631 31.2588 38.8423 39.6243 44.4862 47.858C43.8574 50.0391 43.4807 52.3236 43.308 54.7867Z" fill="#A57053"/>
</g>
<defs>
<clipPath id="clip0_138_39">
<rect width="110.561" height="106.801" fill="white"/>
</clipPath>
</defs>
</svg>

<svg width="111" height="107" fill="none" xmlns="http://www.w3.org/2000/svg"><g clip-path="url(#a)" fill-rule="evenodd" clip-rule="evenodd"><path d="M80.722 26.401c1.465.396 2.478 1.683 2.484 3.15.038.094.039.15.039.15s-.017 12.573-15.428 24.147c-5.73 4.302-10.764 11.066-12.673 17.659-.373 1.274-1.497 2.21-2.856 2.382-1.36.171-2.694-.454-3.395-1.592-3.938-6.616-7.277-17.419.226-29.988 7.313-12.248 20.668-18.654 31.603-15.908Zm-2.49 4.168c-9.53-1.142-18.875 4.45-24.702 14.2-4.629 7.744-3.736 16.538-1.466 22.354 1.874-5.388 5.526-11.826 12.628-17.16 9.048-6.795 12.567-15.644 13.54-19.394ZM60.594 82.207c-1.509-.401-2.557-1.724-2.564-3.236-.039-.053-.04-.084-.04-.084s.017-12.573 15.428-24.147c5.783-4.343 10.858-11.193 12.726-17.845.353-1.242 1.437-2.16 2.759-2.336 1.32-.176 2.62.424 3.309 1.526 3.996 6.593 7.487 17.492-.096 30.194-7.296 12.219-20.602 18.623-31.522 15.928Zm2.41-4.188c9.529 1.142 18.874-4.45 24.701-14.2 4.629-7.744 3.736-16.538 1.466-22.354-1.874 5.389-5.526 11.827-12.628 17.16-9.048 6.796-12.567 15.644-13.54 19.394Z" fill="#9A3B3B"/><path d="M41.337 81.966c1.503-.018 2.81-.998 3.206-2.398.066-.097.083-.159.083-.159s3.353-12.15-8.432-27.18c-4.367-5.57-7.411-13.329-7.508-20.16-.026-1.336-.87-2.529-2.152-3.036a3.559 3.559 0 0 0-3.74.704c-5.558 5.418-11.618 14.999-7.752 28.961 3.785 13.673 14.985 23.203 26.295 23.268Zm7.841-7.304c1.339.74 2.44 1.051 4.024.79a9.664 9.664 0 0 1-2.606 3.497 1.398 1.398 0 0 1-1.506.113 1.298 1.298 0 0 1-.686-1.3c.043-.84.252-1.84.774-3.1Zm-9.163 2.655c-9.51-1.28-17.037-9.017-20.053-19.892-2.396-8.637.823-16.908 4.573-21.96.366 5.675 2.168 12.807 7.6 19.734 6.92 8.826 7.948 18.253 7.88 22.118Zm3.293-22.53c-.466-.7-.955-1.375-1.461-2.021-11.787-15.032-8.433-27.181-8.433-27.181s.02-.068.05-.18c.396-1.4 1.694-2.388 3.197-2.43 6.7.077 13.367 3.426 18.477 8.993a58.617 58.617 0 0 0-3.379 3.43c-3.647-4.23-8.377-7.001-13.735-7.722-.06 3.583.818 11.948 6.462 20.182-.629 2.181-1.005 4.466-1.178 6.929Z" fill="#A57053"/></g><defs><clipPath id="a"><path fill="#fff" d="M0 0h110.561v106.801H0z"/></clipPath></defs></svg>
